resources/svg/solid/braille.svg

<svg fill="currentColor" xmlns="http://www.w3.org/2000/svg" viewBox="0 0 640 512"><!--! Font Awesome Free 6.2.0 by @fontawesome - https://fontawesome.com License - https://fontawesome.com/license/free (Icons: CC BY 4.0, Fonts: SIL OFL 1.1, Code: MIT License) Copyright 2022 Fonticons, Inc. --><path d="M128 96c0 35.3-28.7 64-64 64S0 131.3 0 96S28.7 32 64 32s64 28.7 64 64zm96 176c8.8 0 16-7.2 16-16s-7.2-16-16-16s-16 7.2-16 16s7.2 16 16 16zm0 48c-35.3 0-64-28.7-64-64s28.7-64 64-64s64 28.7 64 64s-28.7 64-64 64zM80 416c0-8.8-7.2-16-16-16s-16 7.2-16 16s7.2 16 16 16s16-7.2 16-16zm48 0c0 35.3-28.7 64-64 64s-64-28.7-64-64s28.7-64 64-64s64 28.7 64 64zm112 0c0-8.8-7.2-16-16-16s-16 7.2-16 16s7.2 16 16 16s16-7.2 16-16zm48 0c0 35.3-28.7 64-64 64s-64-28.7-64-64s28.7-64 64-64s64 28.7 64 64zM64 320c-35.3 0-64-28.7-64-64s28.7-64 64-64s64 28.7 64 64s-28.7 64-64 64zM224 160c-35.3 0-64-28.7-64-64s28.7-64 64-64s64 28.7 64 64s-28.7 64-64 64zM480 96c0 35.3-28.7 64-64 64s-64-28.7-64-64s28.7-64 64-64s64 28.7 64 64zm112 0c0-8.8-7.2-16-16-16s-16 7.2-16 16s7.2 16 16 16s16-7.2 16-16zm48 0c0 35.3-28.7 64-64 64s-64-28.7-64-64s28.7-64 64-64s64 28.7 64 64zM576 272c8.8 0 16-7.2 16-16s-7.2-16-16-16s-16 7.2-16 16s7.2 16 16 16zm0 48c-35.3 0-64-28.7-64-64s28.7-64 64-64s64 28.7 64 64s-28.7 64-64 64zm16 96c0-8.8-7.2-16-16-16s-16 7.2-16 16s7.2 16 16 16s16-7.2 16-16zm48 0c0 35.3-28.7 64-64 64s-64-28.7-64-64s28.7-64 64-64s64 28.7 64 64zM416 272c8.8 0 16-7.2 16-16s-7.2-16-16-16s-16 7.2-16 16s7.2 16 16 16zm0 48c-35.3 0-64-28.7-64-64s28.7-64 64-64s64 28.7 64 64s-28.7 64-64 64zm16 96c0-8.8-7.2-16-16-16s-16 7.2-16 16s7.2 16 16 16s16-7.2 16-16zm48 0c0 35.3-28.7 64-64 64s-64-28.7-64-64s28.7-64 64-64s64 28.7 64 64z"/></svg>

<svg fill="currentColor" xmlns="http://www.w3.org/2000/svg" viewBox="0 0 640 512"><!--! Font Awesome Free 6.1.2 by @fontawesome - https://fontawesome.com License - https://fontawesome.com/license/free (Icons: CC BY 4.0, Fonts: SIL OFL 1.1, Code: MIT License) Copyright 2022 Fonticons, Inc. --><path d="M128 96C128 131.3 99.35 160 64 160C28.65 160 0 131.3 0 96C0 60.65 28.65 32 64 32C99.35 32 128 60.65 128 96zM160 256C160 220.7 188.7 192 224 192C259.3 192 288 220.7 288 256C288 291.3 259.3 320 224 320C188.7 320 160 291.3 160 256zM224 272C232.8 272 240 264.8 240 256C240 247.2 232.8 240 224 240C215.2 240 208 247.2 208 256C208 264.8 215.2 272 224 272zM128 416C128 451.3 99.35 480 64 480C28.65 480 0 451.3 0 416C0 380.7 28.65 352 64 352C99.35 352 128 380.7 128 416zM64 400C55.16 400 48 407.2 48 416C48 424.8 55.16 432 64 432C72.84 432 80 424.8 80 416C80 407.2 72.84 400 64 400zM288 416C288 451.3 259.3 480 224 480C188.7 480 160 451.3 160 416C160 380.7 188.7 352 224 352C259.3 352 288 380.7 288 416zM224 400C215.2 400 208 407.2 208 416C208 424.8 215.2 432 224 432C232.8 432 240 424.8 240 416C240 407.2 232.8 400 224 400zM0 256C0 220.7 28.65 192 64 192C99.35 192 128 220.7 128 256C128 291.3 99.35 320 64 320C28.65 320 0 291.3 0 256zM160 96C160 60.65 188.7 32 224 32C259.3 32 288 60.65 288 96C288 131.3 259.3 160 224 160C188.7 160 160 131.3 160 96zM480 96C480 131.3 451.3 160 416 160C380.7 160 352 131.3 352 96C352 60.65 380.7 32 416 32C451.3 32 480 60.65 480 96zM640 96C640 131.3 611.3 160 576 160C540.7 160 512 131.3 512 96C512 60.65 540.7 32 576 32C611.3 32 640 60.65 640 96zM576 80C567.2 80 560 87.16 560 96C560 104.8 567.2 112 576 112C584.8 112 592 104.8 592 96C592 87.16 584.8 80 576 80zM512 256C512 220.7 540.7 192 576 192C611.3 192 640 220.7 640 256C640 291.3 611.3 320 576 320C540.7 320 512 291.3 512 256zM576 272C584.8 272 592 264.8 592 256C592 247.2 584.8 240 576 240C567.2 240 560 247.2 560 256C560 264.8 567.2 272 576 272zM640 416C640 451.3 611.3 480 576 480C540.7 480 512 451.3 512 416C512 380.7 540.7 352 576 352C611.3 352 640 380.7 640 416zM576 400C567.2 400 560 407.2 560 416C560 424.8 567.2 432 576 432C584.8 432 592 424.8 592 416C592 407.2 584.8 400 576 400zM352 256C352 220.7 380.7 192 416 192C451.3 192 480 220.7 480 256C480 291.3 451.3 320 416 320C380.7 320 352 291.3 352 256zM416 272C424.8 272 432 264.8 432 256C432 247.2 424.8 240 416 240C407.2 240 400 247.2 400 256C400 264.8 407.2 272 416 272zM480 416C480 451.3 451.3 480 416 480C380.7 480 352 451.3 352 416C352 380.7 380.7 352 416 352C451.3 352 480 380.7 480 416zM416 400C407.2 400 400 407.2 400 416C400 424.8 407.2 432 416 432C424.8 432 432 424.8 432 416C432 407.2 424.8 400 416 400z"/></svg>
